svg/l/AI.svg

<svg width="32" height="24" viewBox="0 0 32 24" fill="none" xmlns="http://www.w3.org/2000/svg">
<mask id="mask0" mask-type="alpha" maskUnits="userSpaceOnUse" x="0" y="0" width="32" height="24">
<rect width="32" height="24" fill="white"/>
</mask>
<g mask="url(#mask0)">
<path fill-rule="evenodd" clip-rule="evenodd" d="M0 0V24H32V0H0Z" fill="#2E42A5"/>
<mask id="mask1" mask-type="alpha" maskUnits="userSpaceOnUse" x="0" y="0" width="32" height="24">
<path fill-rule="evenodd" clip-rule="evenodd" d="M0 0V24H32V0H0Z" fill="white"/>
</mask>
<g mask="url(#mask1)">
<path fill-rule="evenodd" clip-rule="evenodd" d="M20.9431 11.8562L20.9463 12.2066C20.9732 15.1566 21.0821 17.0865 21.2757 18.011C21.4365 18.7787 22.0209 20.0518 22.7083 21.0726C23.5726 22.3561 24.4947 23.1368 25.3772 23.1368C26.2628 23.1368 27.1856 22.4108 28.0462 21.2011C28.7525 20.2082 29.3574 18.9486 29.5983 18.0204C29.8964 16.8714 30.0353 14.9356 30.0184 12.2035L30.0163 11.8556L29.6984 12.0202C29.0577 12.3518 28.3679 12.5174 27.6258 12.5174C26.8923 12.5174 26.1844 12.2982 25.4978 11.8563L25.38 11.7805L25.2606 11.8537C24.536 12.2979 23.8552 12.5174 23.217 12.5174C22.5706 12.5174 21.9206 12.3521 21.2648 12.0194L20.9431 11.8562ZM21.4887 17.9695C21.2987 17.0627 21.1904 15.1411 21.1636 12.2048C21.8497 12.5529 22.5341 12.7269 23.217 12.7269C23.8998 12.7269 24.6199 12.4948 25.3772 12.0306C26.0985 12.4948 26.848 12.7269 27.6258 12.7269C28.4036 12.7269 29.1287 12.5529 29.8012 12.2048C29.8179 14.9205 29.68 16.842 29.3875 17.9695C28.9486 19.6607 27.1084 22.9273 25.3772 22.9273C23.6459 22.9273 21.7736 19.3297 21.4887 17.9695Z" fill="#FBE625"/>
<path fill-rule="evenodd" clip-rule="evenodd" d="M21.1636 12.2048C21.1636 12.2048 21.2037 16.6093 21.4887 17.9695C21.7736 19.3297 23.6459 22.9273 25.3771 22.9273C27.1084 22.9273 28.9486 19.6607 29.3875 17.9695C29.8263 16.2783 29.8011 12.2048 29.8011 12.2048C29.8011 12.2048 28.7924 12.7269 27.6258 12.7269C26.4591 12.7269 25.3771 12.0306 25.3771 12.0306C25.3771 12.0306 24.2412 12.7269 23.2169 12.7269C22.1927 12.7269 21.1636 12.2048 21.1636 12.2048Z" fill="#F5FBFF"/>
<mask id="mask2" mask-type="alpha" maskUnits="userSpaceOnUse" x="21" y="12" width="9" height="11">
<path fill-rule="evenodd" clip-rule="evenodd" d="M21.1636 12.2048C21.1636 12.2048 21.2037 16.6093 21.4887 17.9695C21.7736 19.3297 23.6459 22.9273 25.3771 22.9273C27.1084 22.9273 28.9486 19.6607 29.3875 17.9695C29.8263 16.2783 29.8011 12.2048 29.8011 12.2048C29.8011 12.2048 28.7924 12.7269 27.6258 12.7269C26.4591 12.7269 25.3771 12.0306 25.3771 12.0306C25.3771 12.0306 24.2412 12.7269 23.2169 12.7269C22.1927 12.7269 21.1636 12.2048 21.1636 12.2048Z" fill="white"/>
</mask>
<g mask="url(#mask2)">
<path fill-rule="evenodd" clip-rule="evenodd" d="M24.6399 15.4882C24.6399 15.7759 24.2289 16.6134 23.9907 16.8277C23.8145 16.9863 23.8689 16.6178 23.9091 16.3458L23.9091 16.3458C23.9232 16.2503 23.9356 16.1668 23.9356 16.122L23.9356 16.1024C23.9356 16.0459 23.9357 16.0151 23.93 15.9854C23.9232 15.9499 23.9083 15.9158 23.8754 15.8411L23.8754 15.8411C23.8631 15.813 23.8483 15.7793 23.8304 15.7375C23.4489 14.9237 23.7188 14.5339 23.8387 14.3608C23.8571 14.3343 23.8719 14.3129 23.8804 14.2958C23.8985 14.2592 23.9325 14.2263 23.9706 14.1897C24.0663 14.0973 24.1872 13.9808 24.1416 13.7195C24.0779 13.3543 24.464 12.8859 24.464 12.8859C24.464 12.8859 24.3704 13.7943 24.8141 13.5718C25.1025 13.4271 25.6252 13.6347 26.0901 13.8193C26.3405 13.9187 26.5741 14.0114 26.7453 14.0389C27.0911 14.0945 27.2805 13.9493 27.3978 13.8594C27.4464 13.8221 27.4826 13.7943 27.5124 13.7943C27.6141 13.7943 27.734 13.8147 27.734 13.8889C27.734 13.9632 27.2786 14.1805 27.0496 14.2483C26.8771 14.2993 27.0541 14.4401 27.2025 14.5581C27.251 14.5967 27.2964 14.6328 27.3256 14.6625C27.4438 14.7832 27.5521 15.4416 27.2786 15.0274C27.0051 14.6133 26.4228 14.3364 25.9279 14.2958C25.433 14.2553 24.809 14.6309 24.734 15.0274C24.6591 15.4239 25.3195 15.3513 25.3195 15.3513C25.3195 15.3513 25.2712 15.4131 25.0583 15.4882C24.8453 15.5634 24.6399 15.4882 24.6399 15.4882ZM24.1421 15.4571C24.1421 15.515 24.0934 15.5619 24.0334 15.5619C23.9734 15.5619 23.9248 15.515 23.9248 15.4571C23.9248 15.3992 23.9734 15.3523 24.0334 15.3523C24.0934 15.3523 24.1421 15.3992 24.1421 15.4571ZM26.5821 17.401C26.2792 17.2966 25.3475 17.3431 25.0959 17.4826C25.0959 17.4826 25.062 17.2666 24.8931 17.1167C24.7241 16.9669 24.6466 16.9547 24.6466 16.9547C24.6466 16.9547 25.0303 17.497 24.6472 17.6237C24.2641 17.7504 23.633 17.3867 23.4286 16.9342C23.2241 16.4817 23.184 15.8382 23.4136 15.3982C23.6432 14.9582 23.1199 15.3721 23.0717 15.534C23.0598 15.5739 23.0502 15.6312 23.04 15.6923C23.0088 15.8792 22.9715 16.1024 22.8431 15.9762C22.6728 15.8088 22.262 15.5158 22.197 15.5518C22.1321 15.5878 22.1725 15.7026 22.2218 15.7915C22.2362 15.8176 22.278 15.8358 22.3342 15.8602C22.4697 15.9192 22.6885 16.0144 22.8076 16.3439C22.8665 16.507 22.8986 16.7562 22.9331 17.0234C22.997 17.5195 23.0689 18.0772 23.3353 18.2594C23.745 18.5396 22.9051 18.8981 22.9051 18.8981C22.9051 18.8981 23.502 19.0087 23.7905 18.776C23.9969 18.6094 24.1575 18.6586 24.2846 18.6976C24.3352 18.7131 24.3804 18.727 24.4212 18.725C24.4403 18.7241 24.4662 18.7267 24.4982 18.7299C24.7078 18.7509 25.1795 18.798 25.7064 18.0698C25.7342 18.034 25.7565 18.0046 25.775 17.9803L25.7751 17.9802C25.8246 17.9152 25.8471 17.8856 25.8749 17.8625C25.8981 17.8431 25.9251 17.8282 25.9745 17.8009L25.9745 17.8009L25.9745 17.8009L25.9917 17.7914C26.0308 17.7697 26.1099 17.74 26.2002 17.706L26.2002 17.706L26.2002 17.706C26.4576 17.6093 26.8063 17.4783 26.5821 17.401ZM25.3288 17.8816C25.3794 17.8535 25.444 17.8734 25.4731 17.9258C25.5022 17.9783 25.4848 18.0436 25.4342 18.0716C25.3836 18.0997 25.319 18.0799 25.2899 18.0274C25.2608 17.9749 25.2782 17.9096 25.3288 17.8816ZM25.8419 14.8742C25.9193 15.1851 26.4657 15.9412 26.7198 16.0763C26.7198 16.0763 26.557 16.2223 26.5234 16.4456C26.4897 16.6689 26.5217 16.7406 26.5217 16.7406C26.5217 16.7406 26.7675 16.1234 27.0824 16.3757C27.3974 16.628 27.4361 17.3553 27.1679 17.7733C26.8998 18.1912 26.3819 18.5753 25.8878 18.6224C25.3938 18.6695 26.0259 18.8829 26.188 18.8352C26.2279 18.8234 26.2812 18.8003 26.338 18.7755C26.5118 18.6999 26.7192 18.6097 26.6833 18.786C26.6357 19.02 26.6137 19.5242 26.6793 19.559C26.7448 19.5939 26.8191 19.4975 26.8668 19.4077C26.8808 19.3814 26.8733 19.3364 26.8632 19.276C26.8389 19.1303 26.7996 18.8949 27.011 18.6156C27.1157 18.4773 27.3073 18.3146 27.5125 18.1403C27.8938 17.8164 28.3224 17.4524 28.3301 17.1298C28.3419 16.6335 29.1 17.1427 29.1 17.1427C29.1 17.1427 28.8677 16.5819 28.5154 16.4666C28.2633 16.3842 28.2171 16.2228 28.1806 16.0949C28.166 16.0441 28.153 15.9986 28.1292 15.9654C28.1181 15.9499 28.1061 15.9268 28.0913 15.8981C27.9948 15.711 27.7774 15.2897 26.8797 15.2445C26.8345 15.2406 26.7977 15.2379 26.7671 15.2356C26.6857 15.2295 26.6486 15.2267 26.614 15.216C26.5851 15.2071 26.558 15.1926 26.5081 15.166C26.5026 15.1631 26.4969 15.16 26.4908 15.1568C26.4513 15.1358 26.3833 15.0857 26.3057 15.0284L26.3057 15.0284C26.0844 14.8652 25.7846 14.6441 25.8419 14.8742ZM26.962 15.7033C26.9109 15.6762 26.8923 15.6112 26.9205 15.5582C26.9486 15.5052 27.0129 15.4843 27.064 15.5115C27.1151 15.5386 27.1336 15.6036 27.1055 15.6566C27.0773 15.7096 27.0131 15.7305 26.962 15.7033Z" fill="#FF9800"/>
<path fill-rule="evenodd" clip-rule="evenodd" d="M21.426 19.7524H28.705V23.2095H21.426V19.7524Z" fill="#36C6FF"/>
</g>
<rect width="18" height="14" fill="#2B409A"/>
<mask id="mask3" mask-type="alpha" maskUnits="userSpaceOnUse" x="0" y="0" width="18" height="14">
<rect width="18" height="14" fill="white"/>
</mask>
<g mask="url(#mask3)">
<path d="M-2.00427 12.9998L1.95668 14.737L18.0899 1.88872L20.1792 -0.69281L15.9435 -1.27343L9.36317 4.26326L4.06667 7.99369L-2.00427 12.9998Z" fill="#F7FCFF"/>
<path d="M-1.46204 14.2169L0.555885 15.225L19.4289 -0.932678H16.5955L-1.46204 14.2169Z" fill="#F50100"/>
<path d="M20.0042 12.9998L16.0432 14.737L-0.0899963 1.88872L-2.17931 -0.69281L2.05636 -1.27343L8.6367 4.26326L13.9332 7.99369L20.0042 12.9998Z" fill="#F7FCFF"/>
<path d="M19.8689 13.8733L17.851 14.8815L9.81465 7.96351L7.43205 7.19059L-2.38045 -0.683947H0.45295L10.2599 7.00368L12.8649 7.9305L19.8689 13.8733Z" fill="#F50100"/>
<mask id="path-16-outside-1" maskUnits="userSpaceOnUse" x="-2" y="-2" width="22" height="18" fill="black">
<rect fill="white" x="-2" y="-2" width="22" height="18"/>
<path fill-rule="evenodd" clip-rule="evenodd" d="M9.98451 0H7.98451V6H0V8H7.98451V14H9.98451V8H18V6H9.98451V0Z"/>
</mask>
<path fill-rule="evenodd" clip-rule="evenodd" d="M9.98451 0H7.98451V6H0V8H7.98451V14H9.98451V8H18V6H9.98451V0Z" fill="#F50100"/>
<path d="M7.98451 0V-1.5H6.48451V0H7.98451ZM9.98451 0H11.4845V-1.5H9.98451V0ZM7.98451 6V7.5H9.48451V6H7.98451ZM0 6V4.5H-1.5V6H0ZM0 8H-1.5V9.5H0V8ZM7.98451 8H9.48451V6.5H7.98451V8ZM7.98451 14H6.48451V15.5H7.98451V14ZM9.98451 14V15.5H11.4845V14H9.98451ZM9.98451 8V6.5H8.48451V8H9.98451ZM18 8V9.5H19.5V8H18ZM18 6H19.5V4.5H18V6ZM9.98451 6H8.48451V7.5H9.98451V6ZM7.98451 1.5H9.98451V-1.5H7.98451V1.5ZM9.48451 6V0H6.48451V6H9.48451ZM0 7.5H7.98451V4.5H0V7.5ZM1.5 8V6H-1.5V8H1.5ZM7.98451 6.5H0V9.5H7.98451V6.5ZM9.48451 14V8H6.48451V14H9.48451ZM9.98451 12.5H7.98451V15.5H9.98451V12.5ZM8.48451 8V14H11.4845V8H8.48451ZM18 6.5H9.98451V9.5H18V6.5ZM16.5 6V8H19.5V6H16.5ZM9.98451 7.5H18V4.5H9.98451V7.5ZM8.48451 0V6H11.4845V0H8.48451Z" fill="#F7FCFF" mask="url(#path-16-outside-1)"/>
</g>
</g>
</g>
</svg>

<svg width="32" height="24" fill="none" xmlns="http://www.w3.org/2000/svg">
  <mask id="a" maskUnits="userSpaceOnUse" x="0" y="0" width="32" height="24">
    <path fill="#fff" d="M0 0h32v24H0z"/>
  </mask>
  <g mask="url(#a)">
    <path fill-rule="evenodd" clip-rule="evenodd" d="M0 0v24h32V0H0z" fill="#2E42A5"/>
    <mask id="b" maskUnits="userSpaceOnUse" x="0" y="0" width="32" height="24">
      <path fill-rule="evenodd" clip-rule="evenodd" d="M0 0v24h32V0H0z" fill="#fff"/>
    </mask>
    <g mask="url(#b)">
      <path fill-rule="evenodd" clip-rule="evenodd" d="M20.943 11.856l.003.35c.027 2.95.136 4.88.33 5.805.16.768.745 2.04 1.432 3.062.864 1.283 1.787 2.064 2.669 2.064.886 0 1.809-.726 2.669-1.936.706-.993 1.311-2.252 1.552-3.18.298-1.15.437-3.085.42-5.818l-.002-.347-.318.164a4.44 4.44 0 01-2.072.497c-.734 0-1.442-.219-2.128-.66l-.118-.076-.12.073c-.724.444-1.405.663-2.043.663-.646 0-1.296-.165-1.952-.498l-.322-.163zm.546 6.114c-.19-.907-.299-2.829-.326-5.765.686.348 1.371.522 2.054.522.683 0 1.403-.232 2.16-.696.721.464 1.47.696 2.249.696.777 0 1.503-.174 2.175-.522.017 2.716-.121 4.637-.414 5.764-.439 1.692-2.279 4.958-4.01 4.958-1.731 0-3.604-3.597-3.888-4.957z" fill="#FBE625"/>
      <path fill-rule="evenodd" clip-rule="evenodd" d="M21.163 12.205s.04 4.404.326 5.764c.284 1.36 2.157 4.958 3.888 4.958 1.731 0 3.572-3.266 4.01-4.957.44-1.692.414-5.765.414-5.765s-1.009.522-2.175.522c-1.167 0-2.249-.696-2.249-.696s-1.136.696-2.16.696c-1.024 0-2.053-.522-2.053-.522z" fill="#F5FBFF"/>
      <mask id="c" maskUnits="userSpaceOnUse" x="21" y="12" width="9" height="11">
        <path fill-rule="evenodd" clip-rule="evenodd" d="M21.163 12.205s.04 4.404.326 5.764c.284 1.36 2.157 4.958 3.888 4.958 1.731 0 3.572-3.266 4.01-4.957.44-1.692.414-5.765.414-5.765s-1.009.522-2.175.522c-1.167 0-2.249-.696-2.249-.696s-1.136.696-2.16.696c-1.024 0-2.053-.522-2.053-.522z" fill="#fff"/>
      </mask>
      <g mask="url(#c)" fill-rule="evenodd" clip-rule="evenodd">
        <path d="M24.64 15.488c0 .288-.411 1.125-.65 1.34-.176.158-.121-.21-.081-.482.014-.096.026-.18.026-.224v-.02c0-.056 0-.087-.005-.117a.718.718 0 00-.055-.144l-.045-.103c-.381-.814-.111-1.204.009-1.377a.582.582 0 00.041-.065.426.426 0 01.09-.106c.096-.093.217-.21.172-.47-.064-.366.322-.834.322-.834s-.094.908.35.686c.288-.145.811.063 1.276.247.25.1.484.192.655.22.346.056.535-.09.653-.18.048-.037.085-.065.114-.065.102 0 .222.02.222.095 0 .074-.456.292-.685.36-.172.05.005.191.153.31.049.038.094.074.123.104.119.12.227.779-.046.364-.274-.414-.856-.69-1.351-.731-.495-.04-1.12.335-1.194.731-.075.397.585.324.585.324s-.048.062-.26.137c-.214.075-.42 0-.42 0zm-.498-.03a.107.107 0 01-.109.104.107.107 0 01-.108-.105c0-.058.048-.105.108-.105s.109.047.109.105zm2.44 1.943c-.303-.104-1.235-.058-1.486.082 0 0-.034-.216-.203-.366s-.247-.162-.247-.162.384.542.001.669c-.383.126-1.014-.237-1.219-.69-.204-.452-.244-1.096-.015-1.536.23-.44-.293-.026-.341.136-.012.04-.022.097-.032.158-.031.187-.069.41-.197.284-.17-.167-.581-.46-.646-.424-.065.036-.025.15.025.24.014.026.056.044.112.068.136.06.354.154.474.484.058.163.09.412.125.68.064.495.136 1.053.402 1.235.41.28-.43.64-.43.64s.597.11.885-.123c.207-.167.367-.117.495-.078.05.015.095.029.136.027.02 0 .045.002.077.005.21.02.681.068 1.208-.66l.069-.09c.05-.065.072-.094.1-.117a.543.543 0 01.1-.062l.017-.01a2.25 2.25 0 01.208-.085c.258-.097.606-.228.382-.305zm-1.253.48a.107.107 0 01.144.045.107.107 0 01-.039.146.107.107 0 01-.144-.045.107.107 0 01.039-.145zm.513-3.007c.077.311.624 1.067.878 1.202 0 0-.163.146-.197.37-.033.223-.001.295-.001.295s.245-.618.56-.365c.315.252.354.98.086 1.397-.268.418-.786.802-1.28.85-.494.046.138.26.3.212.04-.012.093-.035.15-.06.174-.075.381-.165.345.011-.047.234-.07.738-.004.773.066.035.14-.062.188-.151.014-.027.006-.072-.004-.132-.024-.146-.064-.381.148-.66.105-.139.296-.301.501-.476.382-.324.81-.688.818-1.01.012-.496.77.013.77.013s-.232-.561-.585-.676c-.252-.083-.298-.244-.335-.372a.428.428 0 00-.05-.13.443.443 0 01-.039-.067c-.096-.187-.314-.608-1.211-.653l-.113-.01a.72.72 0 01-.153-.019.609.609 0 01-.106-.05l-.017-.01a1.69 1.69 0 01-.186-.128c-.22-.163-.52-.384-.463-.154zm1.12.83a.107.107 0 01-.042-.146.107.107 0 01.144-.046c.05.027.07.092.041.145a.107.107 0 01-.143.046z" fill="#FF9800"/>
        <path d="M21.426 19.752h7.279v3.457h-7.28v-3.457z" fill="#36C6FF"/>
      </g>
      <path fill="#2B409A" d="M0 0h18v14H0z"/>
      <mask id="d" maskUnits="userSpaceOnUse" x="0" y="0" width="18" height="14">
        <path fill="#fff" d="M0 0h18v14H0z"/>
      </mask>
      <g mask="url(#d)">
        <path d="M-2.004 13l3.96 1.737L18.09 1.889l2.09-2.582-4.236-.58-6.58 5.536-5.297 3.73L-2.004 13z" fill="#F7FCFF"/>
        <path d="M-1.462 14.217l2.018 1.008L19.429-.933h-2.833l-18.058 15.15z" fill="#F50100"/>
        <path d="M20.004 13l-3.96 1.737L-.09 1.889-2.18-.693l4.236-.58 6.58 5.536 5.297 3.73L20.004 13z" fill="#F7FCFF"/>
        <path d="M19.87 13.873l-2.019 1.009-8.036-6.918-2.383-.773L-2.38-.684H.453l9.807 7.688 2.605.927 7.004 5.942z" fill="#F50100"/>
        <mask id="e" maskUnits="userSpaceOnUse" x="-2" y="-2" width="22" height="18" fill="#000">
          <path fill="#fff" d="M-2-2h22v18H-2z"/>
          <path fill-rule="evenodd" clip-rule="evenodd" d="M9.985 0h-2v6H0v2h7.985v6h2V8H18V6H9.985V0z"/>
        </mask>
        <path fill-rule="evenodd" clip-rule="evenodd" d="M9.985 0h-2v6H0v2h7.985v6h2V8H18V6H9.985V0z" fill="#F50100"/>
        <path d="M7.985 0v-1.5h-1.5V0h1.5zm2 0h1.5v-1.5h-1.5V0zm-2 6v1.5h1.5V6h-1.5zM0 6V4.5h-1.5V6H0zm0 2h-1.5v1.5H0V8zm7.985 0h1.5V6.5h-1.5V8zm0 6h-1.5v1.5h1.5V14zm2 0v1.5h1.5V14h-1.5zm0-6V6.5h-1.5V8h1.5zM18 8v1.5h1.5V8H18zm0-2h1.5V4.5H18V6zM9.985 6h-1.5v1.5h1.5V6zm-2-4.5h2v-3h-2v3zm1.5 4.5V0h-3v6h3zM0 7.5h7.985v-3H0v3zm1.5.5V6h-3v2h3zm6.485-1.5H0v3h7.985v-3zm1.5 7.5V8h-3v6h3zm.5-1.5h-2v3h2v-3zM8.485 8v6h3V8h-3zM18 6.5H9.985v3H18v-3zM16.5 6v2h3V6h-3zM9.985 7.5H18v-3H9.985v3zM8.485 0v6h3V0h-3z" fill="#F7FCFF" mask="url(#e)"/>
      </g>
    </g>
  </g>
</svg>
